X:2230
T:Brudmarsch from Voss
S:Felicity P
R:Wedding march
O:Norway
M:4/4
C:Hans Brimi
K:D
A2|\
f2 {g}fe/f/ {fgfg}g2 {a}gf/g/|\
{g}a>b {ag}ag e>e gf|\
d2 {dc}dc/d/ f{g}f/e/ dc|1 \
{c}A2 A>A A2 :|2 {c}d2 d>d d2 ::
AG|\
F3/2G//F// ED EF {GF}GE|{EFE}F2 D>D D2 ge|\
{e}f2 fd e2 ec|1 A2 A>A A2 :|2 {cdc}d2 d>d d2:|


